presets/captureone10/film/captureonestyles.com/2_035 SL Fuji Provia 400X v2.costyle
<?xml version="1.0"?>
<SL Engine="1000">
	<E K="ColorCorrections" V="1,1,1,3,-16,0.0500000007450581,127,63,119,-28.822566986084,28.822566986084,-50,50,12,0,0,0,0;1,1,1,4,0,-0.125,67,63,127,-21.9782791137695,21.9782791137695,-50,50,12,0,0,0,0;1,1,1,0,0,-0.150000005960464,63,118,127,-22.3223114013672,22.3223114013672,-50,50,12,0,0,0,0;1,1,1,3,-24,-0.25,69,127,63,-38.9258460998535,38.9258460998535,-50,50,12,0,0,0,0;1,1,1,0,-2,-0.0399999991059303,127,115,63,-13.5424394607544,13.5424394607544,-50,50,12,0,0,0,0;1,1,1,2,-8,-0.150000005960464,127,68,63,-18.4085693359375,18.4085693359375,-50,50,12,0,0,0,0;0,1,1,0,0,0,0,128,0,-8,8,-50,50,0,0,0,0,0" />
	<E K="GradationCurve" V="0,0;1,1" />
	<E K="GradationCurveBlue" V="0,0;0.165000006556511,0.0820000022649765;0.451999992132187,0.476000010967255;0.694000005722046,0.805000007152557;0.843999981880188,0.922999978065491;1,1" />
	<E K="GradationCurveGreen" V="0,0;0.175999999046326,0.0700000002980232;0.448000013828278,0.474000006914139;0.680999994277954,0.796999990940094;1,1" />
	<E K="GradationCurveRed" V="0,0;0.186000004410744,0.0750000029802322;0.451999992132187,0.476999998092651;0.699000000953674,0.794000029563904;0.922999978065491,0.948000013828278;1,1" />
	<E K="GradationCurveY" V="0,0;1,1" />
	<E K="Name" V="2_035 SL Fuji Provia 400X v2" />
	<E K="UUID" V="C89A7536-51D0-49C8-AF4E-ADC28765A127" />
</SL>
