presets/captureone10/film/captureonestyles.com/3_056 PL PX-70.costyle
<?xml version="1.0"?>
<SL Engine="1000">
	<E K="ColorCorrections" V="1,1,1,5,-32,0.100000001490116,127,63,119,-28.822566986084,28.822566986084,-50,50,12,0,0,0,0;1,1,1,1,-42,0.0750000029802322,67,63,127,-21.9782791137695,21.9782791137695,-50,50,12,0,0,0,0;1,1,1,0,-20,-0.0500000007450581,63,118,127,-22.3223114013672,22.3223114013672,-50,50,12,0,0,0,0;1,1,1,4,-32,0,69,127,63,-38.9258460998535,38.9258460998535,-50,50,12,0,0,0,0;1,1,1,0,-12.8000001907349,-0.025000000372529,127,115,63,-13.5424394607544,13.5424394607544,-50,50,12,0,0,0,0;1,1,1,6,-24,0.159999996423721,127,68,63,-18.4085693359375,18.4085693359375,-50,50,12,0,0,0,0;0,1,1,0,0,0,0,128,0,-8,8,-50,50,0,0,0,0,0" />
	<E K="GradationCurve" V="0,0;0.189999997615814,0.261999994516373;0.456999987363815,0.528999984264374;0.728999972343445,0.748000025749207;1,1" />
	<E K="GradationCurveBlue" V="0,0;0.14300000667572,0.171000003814697;0.479999989271164,0.441000014543533;0.755999982357025,0.620000004768372;0.916000008583069,0.699999988079071;0.978999972343445,0.853999972343445;1,1" />
	<E K="GradationCurveGreen" V="0,0;0.187000006437302,0.140000000596046;0.379999995231628,0.469999998807907;0.675000011920929,0.791999995708466;0.885999977588654,0.927999973297119;1,1" />
	<E K="GradationCurveRed" V="0,0;0.195999994874001,0.090999998152256;0.389999985694885,0.479999989271164;0.703000009059906,0.805999994277954;1,1" />
	<E K="GradationCurveY" V="0,0;1,1" />
	<E K="Name" V="3_056 PL PX-70" />
	<E K="UUID" V="C13633D5-62E6-4D1A-A1C7-7D8F5347215C" />
</SL>
